icons/git-pull-request-closed-16.svg

<svg xmlns="http://www.w3.org/2000/svg" width="16" height="16" viewBox="0 0 16 16"><path d="M3.25 1A2.25 2.25 0 014 5.372v5.256a2.251 2.251 0 11-1.5 0V5.372A2.251 2.251 0 013.25 1zm9.5 5.5a.75.75 0 01.75.75v3.378a2.251 2.251 0 11-1.5 0V7.25a.75.75 0 01.75-.75zm-2.03-5.273a.75.75 0 011.06 0l.97.97.97-.97a.748.748 0 011.265.332.75.75 0 01-.205.729l-.97.97.97.97a.751.751 0 01-.018 1.042.751.751 0 01-1.042.018l-.97-.97-.97.97a.749.749 0 01-1.275-.326.749.749 0 01.215-.734l.97-.97-.97-.97a.75.75 0 010-1.06zM2.5 3.25a.75.75 0 101.5 0 .75.75 0 00-1.5 0zM3.25 12a.75.75 0 100 1.5.75.75 0 000-1.5zm9.5 0a.75.75 0 100 1.5.75.75 0 000-1.5z"/></svg>

<svg xmlns="http://www.w3.org/2000/svg" width="16" height="16" viewBox="0 0 16 16">
  <defs/>
  <path d="M3.25,1 C4.347,0.999 5.284,1.789 5.47,2.87 C5.655,3.95 5.034,5.007 4,5.372 L4,10.628 C5.034,10.993 5.654,12.05 5.469,13.131 C5.283,14.211 4.346,15.001 3.25,15.001 C2.154,15.001 1.217,14.211 1.031,13.131 C0.846,12.05 1.466,10.993 2.5,10.628 L2.5,5.372 C1.466,5.007 0.845,3.95 1.03,2.87 C1.216,1.789 2.153,0.999 3.25,1 Z M12.75,6.5 C13.164,6.5 13.5,6.836 13.5,7.25 L13.5,10.628 C14.534,10.993 15.154,12.05 14.969,13.131 C14.783,14.211 13.846,15.001 12.75,15.001 C11.654,15.001 10.717,14.211 10.531,13.131 C10.346,12.05 10.966,10.993 12,10.628 L12,7.25 C12,6.836 12.336,6.5 12.75,6.5 Z M10.72,1.227 C11.013,0.935 11.487,0.935 11.78,1.227 L12.75,2.197 L13.72,1.227 C13.908,1.032 14.187,0.954 14.449,1.023 C14.712,1.092 14.916,1.296 14.985,1.559 C15.053,1.821 14.975,2.1 14.78,2.288 L13.81,3.258 L14.78,4.228 C15.055,4.524 15.047,4.984 14.762,5.27 C14.476,5.555 14.016,5.563 13.72,5.288 L12.75,4.318 L11.78,5.288 C11.593,5.489 11.311,5.571 11.046,5.503 C10.78,5.436 10.572,5.228 10.505,4.962 C10.437,4.697 10.519,4.415 10.72,4.228 L11.69,3.258 L10.72,2.288 C10.428,1.995 10.428,1.521 10.72,1.228 Z M2.5,3.25 C2.5,3.664 2.836,4 3.25,4 C3.664,4 4,3.664 4,3.25 C4,2.836 3.664,2.5 3.25,2.5 C2.836,2.5 2.5,2.836 2.5,3.25 Z M3.25,12 C2.836,12 2.5,12.336 2.5,12.75 C2.5,13.164 2.836,13.5 3.25,13.5 C3.664,13.5 4,13.164 4,12.75 C4,12.336 3.664,12 3.25,12 Z M12.75,12 C12.336,12 12,12.336 12,12.75 C12,13.164 12.336,13.5 12.75,13.5 C13.164,13.5 13.5,13.164 13.5,12.75 C13.5,12.336 13.164,12 12.75,12 Z"/>
</svg>
